www/assets/icons/crisis_alert.svg

<svg xmlns="http://www.w3.org/2000/svg" width="24" height="24" viewBox="0 0 24 24" fill='currentColor'><path d="M14.5 3.5c0 1.5-1.5 6-1.5 6h-2S9.5 5 9.5 3.5a2.5 2.5 0 0 1 5 0M12 11c-1.1 0-2 .9-2 2s.9 2 2 2 2-.9 2-2-.9-2-2-2m4.08-4.89c.18-.75.33-1.47.39-2.06A10 10 0 0 1 22 13c0 5.52-4.48 10-10 10S2 18.52 2 13c0-3.92 2.25-7.31 5.53-8.95.07.59.21 1.32.39 2.06A8.03 8.03 0 0 0 4 13c0 4.42 3.58 8 8 8s8-3.58 8-8c0-2.93-1.58-5.49-3.92-6.89M18 13c0 3.31-2.69 6-6 6s-6-2.69-6-6c0-2 .98-3.77 2.48-4.86.23.81.65 2.07.65 2.07C8.43 10.93 8 11.92 8 13c0 2.21 1.79 4 4 4s4-1.79 4-4c0-1.08-.43-2.07-1.13-2.79 0 0 .41-1.22.65-2.07A6 6 0 0 1 18 13"/></svg>

<svg width="24" height="24" viewBox="0 0 24 24" xmlns="http://www.w3.org/2000/svg" fill='currentColor'><path d="M14.5 3.5C14.5 5 13 9.5 13 9.5H11C11 9.5 9.5 5 9.5 3.5C9.5 2.12 10.62 1 12 1C13.38 1 14.5 2.12 14.5 3.5ZM12 11C10.9 11 10 11.9 10 13C10 14.1 10.9 15 12 15C13.1 15 14 14.1 14 13C14 11.9 13.1 11 12 11ZM16.08 6.11C16.26 5.36 16.41 4.64 16.47 4.05C19.75 5.69 22 9.08 22 13C22 18.52 17.52 23 12 23C6.48 23 2 18.52 2 13C2 9.08 4.25 5.69 7.53 4.05C7.6 4.64 7.74 5.37 7.92 6.11C5.58 7.51 4 10.07 4 13C4 17.42 7.58 21 12 21C16.42 21 20 17.42 20 13C20 10.07 18.42 7.51 16.08 6.11ZM18 13C18 16.31 15.31 19 12 19C8.69 19 6 16.31 6 13C6 11 6.98 9.23 8.48 8.14C8.71 8.95 9.13 10.21 9.13 10.21C8.43 10.93 8 11.92 8 13C8 15.21 9.79 17 12 17C14.21 17 16 15.21 16 13C16 11.92 15.57 10.93 14.87 10.21C14.87 10.21 15.28 8.99 15.52 8.14C17.02 9.23 18 11 18 13Z"/></svg>
